!!!COM:	Johannes Ockeghem
!!!CDT:	~1425-1497/02/06
!!!OTL:	J'en ay dueil
!!!AGN:	Chanson; Rondeau
!!!SCT:	Ock3007
!!!SCA:	Ock3007
!!!voices:	4
**kern	**kern	**kern	**kern
*staff4	*staff3	*staff2	*staff1
*Ivox	*Ivox	*Ivox	*Ivox
*I"Bassus	*I"Tenor	*I"Altus	*I"Superius
*I'B	*I'T	*I'A	*I'S
*clefF4	*clefGv2	*clefG2	*clefG2
*k[b-]	*k[]	*k[]	*k[]
*M2/1	*M2/1	*M2/1	*M2/1
*met(C|)	*met(C|)	*met(C|)	*met(C|)
=1-	=1-	=1-	=1-
!!LO:TX:Z=25:t=Form&colon; rondeau
1.D	0D	0d	0r
4C/	.	.	.
4BB-/	.	.	.
=2	=2	=2	=2
1AA	0A	0f	0r
1D	.	.	.
=3	=3	=3	=3
0GG	0B-i	0g	0r
=4	=4	=4	=4
0r	1A	[0a	0a
.	[1c	.	.
=5	=5	=5	=5
0r	2c\]	0a]	0cc
.	2B-i\	.	.
.	1A	.	.
=6	=6	=6	=6
0r	0G	0b-i	0dd
=7	=7	=7	=7
0r	0r	0a	0ee
=8	=8	=8	=8
0r	0r	1g	1ee
.	.	1a	[1ee
=9	=9	=9	=9
0r	0r	1b	2ee\]
.	.	.	2dd\
.	.	[1cc	1ee
=10	=10	=10	=10
0r	0r	2cc\]	1ff
.	.	4b-i\	.
.	.	4a/	.
.	.	2g/	[1gg
.	.	2a/	.
=11	=11	=11	=11
0GG	0G	0b-i	2gg\]
.	.	.	4ff\
.	.	.	4ee\
.	.	.	1dd
=12	=12	=12	=12
[0AA	0E	0a	0cc
=13	=13	=13	=13
1AA]	0A	0f	0r
1D	.	.	.
=14	=14	=14	=14
1E	0G	1e	0cc
1C	.	1e	.
=15	=15	=15	=15
1r	1F	0d	1ff
1D	[1A	.	1ff
=16	=16	=16	=16
0AA	2A/]	0c	0ee
.	4G/	.	.
.	4F/	.	.
.	1E	.	.
=17	=17	=17	=17
0BB-	1r	1.f	[0dd
.	[1F	.	.
.	.	2g/	.
=18	=18	=18	=18
1r	2F/]	2a/	1dd]
.	2D/	2b-i\	.
1AA	1E	[1a	1cc
=19	=19	=19	=19
1D	1D	1a]	0b-i
1E	1r	1g	.
=20	=20	=20	=20
1F	0D	1a	1a
1D	.	1f	[1dd
=21	=21	=21	=21
0AA	0A	0e	2dd\]
.	.	.	2b\
.	.	.	1cc#i
=22	=22	=22	=22
0BB-	1.F	0d	1.dd
.	2G/	.	2ee\
=23	=23	=23	=23
1AA	1A	0r	1ff
1GG	[1D	.	[1gg
=24	=24	=24	=24
0BB-	0D]	1.g	2gg\]
.	.	.	2ff\
.	.	.	2ee\
.	.	4f/	2dd\
.	.	4g/	.
=25	=25	=25	=25
0AA;	0E;	0a;	0cc;
=26	=26	=26	=26
1.F	0r	0a	0r
2D\	.	.	.
=27	=27	=27	=27
1D	0r	1b	0r
1D	.	1b	.
=28	=28	=28	=28
0AA	1.A	1.cc	1.cc
.	2B\	4b\	2dd\
.	.	4a/	.
=29	=29	=29	=29
0r	1c	1g	1ee
.	1c	1g	1ee
=30	=30	=30	=30
1D	0F	1f	1.ff
1F	.	1a	.
.	.	.	4ee\
.	.	.	4ff\
=31	=31	=31	=31
1E	0r	1g	1gg
1C	.	[1cc	1ee
=32	=32	=32	=32
0GG	0G	2cc\]	0dd
.	.	4b\	.
.	.	4a/	.
.	.	1b	.
=33	=33	=33	=33
0r	1A	1.cc	1cc
.	1c	.	1ee
.	.	4b\	.
.	.	4cc\	.
=34	=34	=34	=34
0r	1B	1dd	1dd
.	1G	1b	[1gg
=35	=35	=35	=35
0r	0D	0a	1gg]
.	.	.	1ff#i
=36	=36	=36	=36
2.C/	1.E	1.g	1gg
4D\	.	.	.
2E\	.	.	2r
[2F\	[2D/	2a/	2cc\
=37	=37	=37	=37
2F\]	2D/]	2b\	2dd\
2E\	2G/	2cc\	2ee\
2D\	2A/	2dd\	2.ff\
2G\	2B\	2b\	.
.	.	.	4gg\
=38	=38	=38	=38
[0C	1G	1.cc	[0ee
.	[1c	.	.
.	.	4b\	.
.	.	4a/	.
=39	=39	=39	=39
0C]	2c\]	1g	0ee]
.	4B\	.	.
.	4A/	.	.
.	1G	1g	.
=40	=40	=40	=40
1.F	1.F	1a	1r
.	.	1a	1cc
2E\	2C/	.	.
=41	=41	=41	=41
1D	1F	0b	1dd
1D	1F	.	1dd
=42	=42	=42	=42
0C	0G	1.cc	1.ee
.	.	2b\	2dd\
=43	=43	=43	=43
0r	1A	1a	1cc
.	1B	1g	1b
=44	=44	=44	=44
0r	1c	1a	1a
.	1d	1f	[1dd
=45	=45	=45	=45
1r	0A	0e	2dd\]
.	.	.	4cc#i\
.	.	.	4b\
1AA	.	.	1cc#i
=46	=46	=46	=46
1D	1B-i	1d	1dd
1C	2c\	[1a	2ee\
.	[2A/	.	[2ff\
=47	=47	=47	=47
1D	2A/]	0a_	2ff\]
.	4G/	.	4ee\
.	4F/	.	4dd\
2AA/	[1E	.	2.cc\
[2C/	.	.	.
.	.	.	4dd\
=48	=48	=48	=48
2C/]	2E/]	1a]	2ee\
2D\	2F/	.	2cc\
1E	2.G/	1g	1b
.	4F/	.	.
=49	=49	=49	=49
2.AA/	1E	2a/	1a
.	.	2f/	.
4BB-/	.	.	.
1C	2r	1e	2.g/
.	[2G/	.	.
.	.	.	4a/
=50	=50	=50	=50
2GG/	2G/]	2d/	2b\
2AA/	2F/	2c/	2cc\
2GG/	1G	2e/	2b\
2BB-/	.	2d/	[2dd\
=51	=51	=51	=51
2AA/	1A	1f	4dd\]
.	.	.	4cc\
1C	.	.	4b\
.	.	.	4a/
.	1G	1e	2cc\
[2GG/	.	.	[2b\
=52	=52	=52	=52
2GG/]	1r	2d/	2b\]
2AA/	.	2c/	1a
1E	1G	1B	.
.	.	.	2g#i/
=53	=53	=53	=53
0AAl	0El	0Al	0al
==	==	==	==
*-	*-	*-	*-
!!!RDF**kern: l=long note in original notation
!!!RDF**kern: i=editorial accidental
!!!RDF**kern: V=start of tuplet marker
!!!RDF**kern: Z=end of tuplet marker
!!!ENC:	Chris Gage 06-25-2012
!!!END:	2012/06/25/
!!!EED:	Jesse Rodin
!!!EEV:	2012/08/03/
!!!ONB:	Translated from MusicXML and edited on 2012/06/27/ by Craig Sapp
!!muse2ps: C^@{COM}^i2I150v85,85,85,150Q16
